X: 6
T: The Tap Room
R: reel
M: 4/4
L: 1/8
K: Emin
|:Beef e2dB|AD (3FED FAAc|Beef edBc|dBAc BEE2|Beef e2dB|AD (3FED FAAc|Beef edBc|dBAc BEE2:|||:(3Bcd eg fde^c|defg afed|(3Bcd eg fde^c|dBAc BEE2|(3Bcd eg fde^c|defg afef|g2ge f2fe|dBAc BEE2:||


Tune 711	Setting 13772

